src/icons/logos/preact.svg

<svg width="659" height="220" viewBox="0 0 659 220" fill="none" xmlns="http://www.w3.org/2000/svg">
<path d="M88.0223 76.4142C96.53 71.6257 104.685 68.0807 111.941 65.923C118.491 63.9752 124.153 63.2049 128.607 63.566C133.06 63.927 135.97 65.3773 137.621 67.5294C139.273 69.6815 139.92 72.8672 139.116 77.2624C138.313 81.6576 136.103 86.9273 132.526 92.7503C130.009 96.8479 126.858 101.151 123.143 105.534C116.835 98.7604 109.376 91.9737 101.023 85.5641C96.7043 82.2505 92.3504 79.1937 88.0223 76.4142Z" fill="black"/>
<path d="M41.4016 105.534C37.6872 101.151 34.5355 96.8479 32.0186 92.7503C28.4417 86.9273 26.2322 81.6576 25.4284 77.2624C24.6245 72.8672 25.2723 69.6815 26.9237 67.5294C28.575 65.3773 31.4845 63.927 35.938 63.566C40.3915 63.2049 46.0535 63.9752 52.6039 65.923C59.8598 68.0807 68.0148 71.6257 76.5225 76.4142C72.1944 79.1937 67.8405 82.2505 63.5221 85.5641C55.1688 91.9738 47.7098 98.7604 41.4016 105.534Z" fill="black"/>
<path fill-rule="evenodd" clip-rule="evenodd" d="M45.3576 110C51.4867 103.367 58.8272 96.6507 67.1366 90.2746C72.1884 86.3983 77.2691 82.9004 82.2724 79.809C87.2758 82.9004 92.3565 86.3983 97.4082 90.2746C105.718 96.6507 113.058 103.367 119.187 110C113.058 116.633 105.718 123.349 97.4082 129.725C92.3564 133.602 87.2757 137.1 82.2724 140.191C77.2691 137.1 72.1884 133.602 67.1366 129.725C58.8272 123.349 51.4867 116.633 45.3576 110ZM82.2724 122.617C89.2406 122.617 94.8896 116.968 94.8896 110C94.8896 103.032 89.2406 97.3828 82.2724 97.3828C75.3041 97.3828 69.6552 103.032 69.6552 110C69.6552 116.968 75.3041 122.617 82.2724 122.617Z" fill="black"/>
<path d="M41.4016 114.466C37.6871 118.849 34.5355 123.152 32.0185 127.25C28.4417 133.073 26.2322 138.342 25.4283 142.738C24.6244 147.133 25.2722 150.319 26.9236 152.471C28.575 154.623 31.4845 156.073 35.9379 156.434C40.3914 156.795 46.0534 156.025 52.6038 154.077C59.8597 151.919 68.0148 148.374 76.5225 143.586C72.1944 140.806 67.8405 137.75 63.5221 134.436C55.1689 128.026 47.7098 121.24 41.4016 114.466Z" fill="black"/>
<path d="M88.0223 143.586C96.53 148.374 104.685 151.919 111.941 154.077C118.491 156.025 124.153 156.795 128.607 156.434C133.06 156.073 135.97 154.623 137.621 152.471C139.273 150.319 139.92 147.133 139.117 142.738C138.313 138.342 136.103 133.073 132.526 127.25C130.009 123.152 126.858 118.849 123.143 114.466C116.835 121.24 109.376 128.026 101.023 134.436C96.7043 137.75 92.3504 140.806 88.0223 143.586Z" fill="black"/>
<path fill-rule="evenodd" clip-rule="evenodd" d="M164.545 62.5L82.2724 15L0 62.5V157.5L82.2724 205L164.545 157.5V62.5ZM82.2724 72.8745C92.1235 67.0712 101.696 62.7752 110.249 60.2318C117.207 58.1628 123.646 57.2068 129.087 57.6479C134.527 58.089 139.304 59.9696 142.332 63.9149C145.359 67.8602 145.939 72.9612 144.957 78.3306C143.975 83.6999 141.385 89.6726 137.585 95.858C134.779 100.427 131.265 105.189 127.138 110C131.265 114.811 134.779 119.573 137.586 124.142C141.385 130.327 143.975 136.3 144.957 141.669C145.939 147.039 145.359 152.14 142.332 156.085C139.304 160.03 134.527 161.911 129.087 162.352C123.646 162.793 117.207 161.837 110.249 159.768C101.696 157.225 92.1236 152.929 82.2724 147.125C72.4212 152.929 62.8491 157.225 54.2962 159.768C47.3381 161.837 40.8986 162.793 35.4581 162.352C30.0175 161.911 25.2404 160.03 22.2131 156.085C19.1857 152.14 18.6056 147.039 19.5877 141.669C20.5697 136.3 23.1598 130.327 26.9593 124.142C29.766 119.573 33.2796 114.811 37.4068 110C33.2796 105.189 29.7661 100.427 26.9593 95.858C23.1599 89.6726 20.5698 83.6999 19.5877 78.3306C18.6057 72.9612 19.1858 67.8602 22.2131 63.9149C25.2405 59.9696 30.0175 58.089 35.4581 57.6479C40.8987 57.2067 47.3382 58.1628 54.2962 60.2318C62.8492 62.7752 72.4213 67.0712 82.2724 72.8745Z" fill="black"/>
<path d="M205.249 107.129V69.7527H235.201C241.26 69.7527 246.166 71.2887 249.921 74.3607C253.676 77.4327 255.553 82.126 255.553 88.4407C255.553 94.7554 253.676 99.4487 249.921 102.521C246.166 105.593 241.26 107.129 235.201 107.129H205.249ZM196.545 62.3287V153.721H205.249V114.553H237.121C241.217 114.553 244.929 113.998 248.257 112.889C251.585 111.694 254.444 109.987 256.833 107.769C259.222 105.465 261.057 102.691 262.337 99.4487C263.617 96.206 264.257 92.5367 264.257 88.4407C264.257 84.3447 263.617 80.6754 262.337 77.4327C261.057 74.19 259.222 71.4594 256.833 69.2407C254.444 66.9367 251.585 65.23 248.257 64.1207C244.929 62.926 241.217 62.3287 237.121 62.3287H196.545Z" fill="black"/>
<path d="M283.314 105.721V69.7527H315.826C322.482 69.7527 327.431 71.374 330.674 74.6167C333.917 77.8594 335.538 82.2967 335.538 87.9287C335.538 90.7447 334.983 93.262 333.874 95.4807C332.85 97.614 331.442 99.4487 329.65 100.985C327.858 102.521 325.767 103.715 323.378 104.569C320.989 105.337 318.471 105.721 315.826 105.721H283.314ZM274.61 62.3287V153.721H283.314V113.145H316.338C320.434 112.974 323.634 113.657 325.938 115.193C328.327 116.729 330.119 118.777 331.314 121.337C332.594 123.811 333.405 126.67 333.746 129.913C334.173 133.07 334.471 136.27 334.642 139.513C334.727 140.451 334.813 141.561 334.898 142.841C334.983 144.121 335.069 145.443 335.154 146.809C335.325 148.089 335.538 149.369 335.794 150.649C336.135 151.843 336.562 152.867 337.074 153.721H346.674C345.735 152.611 344.967 151.075 344.37 149.113C343.858 147.065 343.474 144.931 343.218 142.713C342.962 140.409 342.791 138.147 342.706 135.929C342.621 133.71 342.535 131.833 342.45 130.297C342.279 127.566 341.895 125.049 341.298 122.745C340.786 120.355 339.89 118.265 338.61 116.473C337.415 114.681 335.837 113.23 333.874 112.121C331.911 110.926 329.437 110.115 326.45 109.689V109.433C332.338 108.238 336.775 105.507 339.762 101.241C342.749 96.974 344.242 91.9394 344.242 86.1367C344.242 82.0407 343.474 78.4994 341.938 75.5127C340.487 72.4407 338.482 69.966 335.922 68.0887C333.447 66.126 330.503 64.6754 327.09 63.7367C323.762 62.798 320.221 62.3287 316.466 62.3287H274.61Z" fill="black"/>
<path d="M357.425 62.3287V153.721H421.169V146.297H366.129V110.201H417.073V102.777H366.129V69.7527H420.529V62.3287H357.425Z" fill="black"/>
<path d="M446.228 117.881L464.532 71.0327L482.196 117.881H446.228ZM460.052 62.3287L423.316 153.721H432.532L443.54 125.305H485.14L496.276 153.721H505.62L469.78 62.3287H460.052Z" fill="black"/>
<path d="M576.901 89.9767H585.605C585.008 85.198 583.557 80.974 581.253 77.3047C579.034 73.6354 576.218 70.5634 572.805 68.0887C569.477 65.5287 565.722 63.6087 561.541 62.3287C557.445 61.0487 553.221 60.4087 548.869 60.4087C541.701 60.4087 535.386 61.7314 529.925 64.3767C524.549 66.9367 520.069 70.4354 516.485 74.8727C512.901 79.2247 510.213 84.2594 508.421 89.9767C506.629 95.694 505.733 101.71 505.733 108.025C505.733 114.339 506.629 120.355 508.421 126.073C510.213 131.79 512.901 136.825 516.485 141.177C520.069 145.529 524.549 149.027 529.925 151.673C535.386 154.233 541.701 155.513 548.869 155.513C554.245 155.513 559.109 154.659 563.461 152.953C567.898 151.246 571.738 148.814 574.981 145.657C578.224 142.499 580.869 138.659 582.917 134.137C584.965 129.614 586.288 124.537 586.885 118.905H578.181C577.754 123.001 576.773 126.841 575.237 130.425C573.701 133.923 571.696 136.995 569.221 139.641C566.746 142.286 563.802 144.377 560.389 145.913C556.976 147.449 553.136 148.217 548.869 148.217C542.81 148.217 537.605 147.065 533.253 144.761C528.901 142.457 525.317 139.427 522.501 135.673C519.77 131.833 517.722 127.523 516.357 122.745C515.077 117.881 514.437 112.974 514.437 108.025C514.437 102.99 515.077 98.0834 516.357 93.3047C517.722 88.526 519.77 84.2594 522.501 80.5047C525.317 76.6647 528.901 73.5927 533.253 71.2887C537.605 68.9847 542.81 67.8327 548.869 67.8327C552.197 67.8327 555.354 68.3447 558.341 69.3687C561.413 70.3074 564.186 71.7154 566.661 73.5927C569.221 75.47 571.354 77.8167 573.061 80.6327C574.853 83.3634 576.133 86.478 576.901 89.9767Z" fill="black"/>
<path d="M586.642 62.3287V69.7527H618.386V153.721H627.09V69.7527H658.962V62.3287H586.642Z" fill="black"/>
</svg>

<svg xmlns="http://www.w3.org/2000/svg" width="659" height="220" fill="none">
    <path fill="#000"
        d="M88.022 76.414c8.508-4.788 16.663-8.333 23.919-10.491 6.55-1.948 12.212-2.718 16.666-2.357 4.453.361 7.363 1.811 9.014 3.963 1.652 2.153 2.299 5.338 1.495 9.733-.803 4.396-3.013 9.665-6.59 15.488-2.517 4.098-5.668 8.401-9.383 12.784-6.308-6.774-13.767-13.56-22.12-19.97a190.57 190.57 0 0 0-13-9.15ZM41.402 105.534c-3.715-4.383-6.867-8.686-9.383-12.784-3.577-5.823-5.787-11.092-6.59-15.488-.804-4.395-.157-7.58 1.495-9.733 1.651-2.152 4.56-3.602 9.014-3.963 4.453-.361 10.115.41 16.666 2.357 7.256 2.158 15.41 5.703 23.918 10.491a190.49 190.49 0 0 0-13 9.15c-8.353 6.41-15.812 13.196-22.12 19.97Z" />
    <path fill="#000" fill-rule="evenodd"
        d="M45.358 110c6.129-6.633 13.47-13.35 21.779-19.725a182.683 182.683 0 0 1 15.135-10.466 182.65 182.65 0 0 1 15.136 10.466c8.31 6.376 15.65 13.092 21.779 19.725-6.129 6.633-13.469 13.349-21.779 19.725a182.423 182.423 0 0 1-15.136 10.466 182.423 182.423 0 0 1-15.135-10.466c-8.31-6.376-15.65-13.092-21.78-19.725Zm36.914 12.617c6.969 0 12.618-5.649 12.618-12.617 0-6.968-5.65-12.617-12.618-12.617S69.655 103.032 69.655 110c0 6.968 5.65 12.617 12.617 12.617Z"
        clip-rule="evenodd" />
    <path fill="#000"
        d="M41.402 114.466c-3.715 4.383-6.867 8.686-9.383 12.784-3.577 5.823-5.787 11.092-6.59 15.488-.805 4.395-.157 7.581 1.495 9.733 1.651 2.152 4.56 3.602 9.014 3.963 4.453.361 10.115-.409 16.666-2.357 7.256-2.158 15.41-5.703 23.918-10.491a190.528 190.528 0 0 1-13-9.15c-8.353-6.41-15.812-13.196-22.12-19.97ZM88.022 143.586c8.508 4.788 16.663 8.333 23.919 10.491 6.55 1.948 12.212 2.718 16.666 2.357 4.453-.361 7.363-1.811 9.014-3.963 1.652-2.152 2.299-5.338 1.496-9.733-.804-4.396-3.014-9.665-6.591-15.488-2.517-4.098-5.668-8.401-9.383-12.784-6.308 6.774-13.767 13.56-22.12 19.97a190.607 190.607 0 0 1-13 9.15Z" />
    <path fill="#000" fill-rule="evenodd"
        d="M164.545 62.5 82.272 15 0 62.5v95L82.272 205l82.273-47.5v-95ZM82.272 72.874c9.852-5.803 19.424-10.099 27.977-12.642 6.958-2.07 13.397-3.025 18.838-2.584 5.44.441 10.217 2.322 13.245 6.267 3.027 3.945 3.607 9.046 2.625 14.416-.982 5.369-3.572 11.342-7.372 17.527-2.806 4.569-6.32 9.331-10.447 14.142 4.127 4.811 7.641 9.573 10.448 14.142 3.799 6.185 6.389 12.158 7.371 17.527.982 5.37.402 10.471-2.625 14.416-3.028 3.945-7.805 5.826-13.245 6.267-5.441.441-11.88-.515-18.838-2.584-8.553-2.543-18.125-6.839-27.977-12.643-9.85 5.804-19.423 10.1-27.976 12.643-6.958 2.069-13.397 3.025-18.838 2.584-5.44-.441-10.218-2.322-13.245-6.267-3.027-3.945-3.607-9.046-2.625-14.416.982-5.369 3.572-11.342 7.371-17.527 2.807-4.569 6.32-9.331 10.448-14.142-4.127-4.811-7.64-9.573-10.448-14.142-3.8-6.185-6.39-12.158-7.371-17.527-.982-5.37-.402-10.47 2.625-14.416 3.027-3.945 7.804-5.826 13.245-6.267 5.44-.441 11.88.515 18.838 2.584 8.553 2.543 18.125 6.84 27.976 12.642Z"
        clip-rule="evenodd" />
    <path fill="#000"
        d="M205.249 107.129V69.753h29.952c6.059 0 10.965 1.536 14.72 4.608 3.755 3.072 5.632 7.765 5.632 14.08 0 6.314-1.877 11.008-5.632 14.08-3.755 3.072-8.661 4.608-14.72 4.608h-29.952Zm-8.704-44.8v91.392h8.704v-39.168h31.872c4.096 0 7.808-.555 11.136-1.664 3.328-1.195 6.187-2.902 8.576-5.12 2.389-2.304 4.224-5.078 5.504-8.32 1.28-3.243 1.92-6.912 1.92-11.008 0-4.096-.64-7.766-1.92-11.008-1.28-3.243-3.115-5.974-5.504-8.192-2.389-2.304-5.248-4.011-8.576-5.12-3.328-1.195-7.04-1.792-11.136-1.792h-40.576ZM283.314 105.721V69.753h32.512c6.656 0 11.605 1.621 14.848 4.864 3.243 3.242 4.864 7.68 4.864 13.312 0 2.816-.555 5.333-1.664 7.552a16.679 16.679 0 0 1-4.224 5.504c-1.792 1.536-3.883 2.73-6.272 3.584-2.389.768-4.907 1.152-7.552 1.152h-32.512Zm-8.704-43.392v91.392h8.704v-40.576h33.024c4.096-.171 7.296.512 9.6 2.048 2.389 1.536 4.181 3.584 5.376 6.144 1.28 2.474 2.091 5.333 2.432 8.576.427 3.157.725 6.357.896 9.6.085.938.171 2.048.256 3.328.085 1.28.171 2.602.256 3.968.171 1.28.384 2.56.64 3.84.341 1.194.768 2.218 1.28 3.072h9.6c-.939-1.11-1.707-2.646-2.304-4.608a50.016 50.016 0 0 1-1.152-6.4 94.07 94.07 0 0 1-.512-6.784 338.817 338.817 0 0 0-.256-5.632c-.171-2.731-.555-5.248-1.152-7.552-.512-2.39-1.408-4.48-2.688-6.272-1.195-1.792-2.773-3.243-4.736-4.352-1.963-1.195-4.437-2.006-7.424-2.432v-.256c5.888-1.195 10.325-3.926 13.312-8.192 2.987-4.267 4.48-9.302 4.48-15.104 0-4.096-.768-7.638-2.304-10.624-1.451-3.072-3.456-5.547-6.016-7.424-2.475-1.963-5.419-3.414-8.832-4.352-3.328-.939-6.869-1.408-10.624-1.408H274.61ZM357.425 62.329v91.392h63.744v-7.424h-55.04v-36.096h50.944v-7.424h-50.944V69.753h54.4v-7.424h-63.104ZM446.228 117.881l18.304-46.848 17.664 46.848h-35.968Zm13.824-55.552-36.736 91.392h9.216l11.008-28.416h41.6l11.136 28.416h9.344l-35.84-91.392h-9.728ZM576.901 89.977h8.704c-.597-4.779-2.048-9.003-4.352-12.672-2.219-3.67-5.035-6.742-8.448-9.216-3.328-2.56-7.083-4.48-11.264-5.76a42.237 42.237 0 0 0-12.672-1.92c-7.168 0-13.483 1.322-18.944 3.968-5.376 2.56-9.856 6.058-13.44 10.496-3.584 4.352-6.272 9.386-8.064 15.104-1.792 5.717-2.688 11.733-2.688 18.048 0 6.314.896 12.33 2.688 18.048 1.792 5.717 4.48 10.752 8.064 15.104 3.584 4.352 8.064 7.85 13.44 10.496 5.461 2.56 11.776 3.84 18.944 3.84 5.376 0 10.24-.854 14.592-2.56 4.437-1.707 8.277-4.139 11.52-7.296 3.243-3.158 5.888-6.998 7.936-11.52 2.048-4.523 3.371-9.6 3.968-15.232h-8.704c-.427 4.096-1.408 7.936-2.944 11.52-1.536 3.498-3.541 6.57-6.016 9.216-2.475 2.645-5.419 4.736-8.832 6.272-3.413 1.536-7.253 2.304-11.52 2.304-6.059 0-11.264-1.152-15.616-3.456-4.352-2.304-7.936-5.334-10.752-9.088-2.731-3.84-4.779-8.15-6.144-12.928a57.615 57.615 0 0 1-1.92-14.72c0-5.035.64-9.942 1.92-14.72 1.365-4.779 3.413-9.046 6.144-12.8 2.816-3.84 6.4-6.912 10.752-9.216 4.352-2.304 9.557-3.456 15.616-3.456 3.328 0 6.485.512 9.472 1.536 3.072.938 5.845 2.346 8.32 4.224 2.56 1.877 4.693 4.224 6.4 7.04 1.792 2.73 3.072 5.845 3.84 9.344ZM586.642 62.329v7.424h31.744v83.968h8.704V69.753h31.872v-7.424h-72.32Z" />
</svg>
